X: 20774
T: Johnny Leary's
R: polka
M: 2/4
K: Dmajor
AF FE|DF FD/F/|AF AF|E2 EA/B/|
AF F/A/F/E/|DF FD/F/|AF/A/ Bc|df/d/ cB|
AF FE|DF FD/F/|AF AF|E2 E>F|
GE E/G/E/D/|CE E2|FA Bc|dA Bc||
|:d2 fe|c2 ec|BA Bc|BA FA/B/|
d>e fe|c>f ec|B/c/d ce|1 dA Bc:|2 df/d/ cB||

